packages/icons/src/svg/tic-negative.svg

<svg xmlns="http://www.w3.org/2000/svg" viewBox="0 0 16 16">
  <path d="M8.8962,14.6376 C8.7782,14.3876 8.5542,14.1976 8.2832,14.1246 L8.2832,10.4676 L10.6922,10.4696 C11.7602,10.4696 12.6262,9.5806 12.6262,8.4836 C12.6262,7.3866 11.7602,6.4966 10.6922,6.4966 C10.6022,6.4966 10.5122,6.5056 10.4252,6.5186 C10.1832,5.4006 9.1892,4.5626 7.9982,4.5626 C7.0502,4.5626 6.2262,5.0936 5.8072,5.8756 C5.7372,5.8626 5.6662,5.8516 5.5922,5.8516 C4.9712,5.8516 4.4682,6.3676 4.4682,7.0056 C4.4682,7.1626 4.5002,7.3146 4.5562,7.4506 C3.8672,7.5806 3.3432,8.1976 3.3432,8.9426 C3.3432,9.7836 4.0062,10.4636 4.8242,10.4636 L7.7942,10.4666 L7.7942,14.1226 C7.5182,14.1946 7.2922,14.3856 7.1722,14.6396 C4.1642,14.2536 1.7762,11.8626 1.3972,8.8516 C1.7002,8.6926 1.9082,8.3736 1.9082,8.0076 C1.9082,7.6416 1.7012,7.3246 1.3982,7.1636 C1.7812,4.1536 4.1752,1.7626 7.1872,1.3826 C7.3442,1.6946 7.6662,1.9076 8.0382,1.9076 C8.4092,1.9076 8.7302,1.6956 8.8882,1.3856 C11.8812,1.7736 14.2592,4.1476 14.6512,7.1406 C14.3212,7.2906 14.0922,7.6216 14.0922,8.0076 C14.0922,8.3936 14.3222,8.7256 14.6522,8.8756 C14.2642,11.8686 11.8892,14.2456 8.8962,14.6376 M16.0002,8.0076 C16.0002,7.5536 15.6832,7.1746 15.2592,7.0776 C14.8402,3.8026 12.2502,1.2066 8.9762,0.7816 C8.8942,0.3366 8.5062,-0.0004 8.0382,-0.0004 C7.5712,-0.0004 7.1842,0.3356 7.1012,0.7786 C3.8192,1.1946 1.2192,3.7886 0.7942,7.0686 C0.3442,7.1446 0.0002,7.5346 0.0002,8.0076 C0.0002,8.4796 0.3432,8.8696 0.7932,8.9476 C1.2142,12.2316 3.8172,14.8306 7.1032,15.2456 C7.1952,15.6756 7.5772,15.9986 8.0352,15.9986 C8.4932,15.9986 8.8752,15.6746 8.9672,15.2436 C12.2482,14.8216 14.8442,12.2196 15.2602,8.9366 C15.6842,8.8386 16.0002,8.4606 16.0002,8.0076"/>
</svg>

<svg xmlns="http://www.w3.org/2000/svg" viewBox="0 0 16 16">
	<path d="M8.896 14.638a.954.954 0 0 0-.613-.513v-3.657l2.41.002c1.067 0 1.933-.89 1.933-1.986 0-1.097-.866-1.987-1.934-1.987-.09 0-.18.009-.267.022a2.484 2.484 0 0 0-4.618-.643 1.17 1.17 0 0 0-.215-.024c-.62 0-1.124.516-1.124 1.154 0 .157.032.309.088.445a1.509 1.509 0 0 0-1.213 1.492c0 .84.663 1.52 1.481 1.52l2.97.004v3.656a.955.955 0 0 0-.622.517 6.695 6.695 0 0 1-5.775-5.788.954.954 0 0 0 .001-1.688 6.697 6.697 0 0 1 5.79-5.781.952.952 0 0 0 1.7.003 6.697 6.697 0 0 1 5.763 5.755.951.951 0 0 0 .001 1.735 6.697 6.697 0 0 1-5.756 5.762M16 8.008a.954.954 0 0 0-.74-.93A7.294 7.294 0 0 0 8.975.782.954.954 0 0 0 7.101.779a7.296 7.296 0 0 0-6.307 6.29.953.953 0 0 0 0 1.879 7.295 7.295 0 0 0 6.31 6.298.954.954 0 0 0 1.863-.002 7.294 7.294 0 0 0 6.293-6.307.954.954 0 0 0 .74-.93"/>
</svg>
